packages/sources/icons/src/vitamix/arrow-go-forward-line.svg

<svg width="16" height="16" viewBox="0 0 16 16" xmlns="http://www.w3.org/2000/svg"><path d="M12.1147 4.66668H7.33333C5.12419 4.66668 3.33333 6.45754 3.33333 8.66668C3.33333 10.8758 5.12419 12.6667 7.33333 12.6667H13.3333V14H7.33333C4.38781 14 2 11.6122 2 8.66668C2 5.72116 4.38781 3.33335 7.33333 3.33335H12.1147L10.424 1.64268L11.3667 0.700012L14.6667 4.00001L11.3667 7.30001L10.424 6.35735L12.1147 4.66668Z"/></svg>

<svg width="16" height="16" xmlns="http://www.w3.org/2000/svg"><path d="M12.115 4.667H7.333a4 4 0 1 0 0 8h6V14h-6a5.333 5.333 0 1 1 0-10.667h4.782l-1.691-1.69.943-.943 3.3 3.3-3.3 3.3-.943-.943 1.69-1.69Z"/></svg>
